assets/images/design-left.svg

<svg width="153" height="178" viewBox="0 0 153 178" fill="none" xmlns="http://www.w3.org/2000/svg">
<g clip-path="url(#clip0_28589_3677)">
<path d="M46.489 32.0308C46.5801 31.4784 46.6516 31.0265 46.7687 30.5634C47.4255 28.1771 48.72 26.1966 50.3894 24.3558C52.7324 21.8065 55.537 19.9017 58.5721 18.3203C63.5945 15.725 68.9941 14.1819 74.5528 13.414C82.7954 12.2614 90.9421 12.7216 99.0006 14.6454C103.522 15.7405 107.826 17.278 111.783 19.6765C113.216 20.5411 114.538 21.5328 115.827 22.5797C116.57 23.1986 117.136 24.0553 117.735 24.8556C117.954 25.1333 118.171 25.4115 118.531 25.3153C118.787 25.1979 119.11 24.9674 119.241 24.7398C119.525 24.1834 119.368 23.601 119.012 23.1684C118.332 22.245 117.73 21.254 116.863 20.5247C115.471 19.3032 113.973 18.2097 112.385 17.2574C109.413 15.3154 106.069 13.9533 102.631 12.9521C90.6069 9.49643 78.5224 9.22695 66.399 12.5717C60.9904 14.0696 55.9411 16.3833 51.5651 19.9576C47.7451 23.0953 44.8357 26.757 44.055 31.9148C43.6272 31.9332 43.2328 31.895 42.8504 31.9011C37.9628 31.7697 33.0489 32.0769 28.2256 33.0815C23.5363 34.0492 19.0486 35.5881 15.064 38.2895C13.8144 39.1527 12.6442 40.1256 11.5673 41.1965C6.44423 46.4609 5.74685 53.1814 9.54376 59.4658C10.9222 61.7395 12.6876 63.6683 14.6539 65.447C18.5055 68.8832 22.9056 71.4995 27.5355 73.7178C28.8063 74.338 30.0987 74.8572 31.415 75.4653C31.687 75.5839 31.9138 75.7157 32.2999 75.9011C31.9572 76.2331 31.6579 76.5535 31.3921 76.8172C28.7888 79.2913 26.6187 82.1307 25.2569 85.4752C23.537 89.6351 23.2372 93.8948 24.6829 98.2159C25.559 100.767 26.9131 102.95 28.7028 104.97C31.5258 108.152 34.9871 110.491 38.7673 112.409C39.2673 112.66 39.7661 112.911 40.3677 113.181C40.1378 113.579 39.8961 113.933 39.6996 114.273C37.5838 117.675 36.4523 121.342 36.9147 125.397C37.2231 128.341 38.3595 130.967 40.0209 133.404C42.1562 136.532 44.8767 138.973 47.9846 141.071C52.2782 144.005 56.9739 146.109 61.9403 147.613C62.3143 147.753 62.7327 147.881 63.2084 148.041C62.9342 148.451 62.7247 148.748 62.483 149.101C59.9201 152.623 57.5264 156.243 55.702 160.19C54.8425 162.006 54.1426 163.875 53.4998 165.777C52.9933 167.181 52.7884 168.677 52.8983 170.166C52.9625 171.302 53.2769 171.938 53.9738 172.568C54.0053 172.522 54.0427 172.479 54.0849 172.442C53.6227 171.076 53.8364 169.722 54.1965 168.377C54.7465 166.307 55.6264 164.39 56.6191 162.539C59.1392 157.779 62.1714 153.317 65.4431 149.029C65.5198 148.96 65.5977 148.891 65.7404 148.709C66.0469 148.771 66.3958 148.821 66.7579 148.917C75.6942 150.894 84.7045 151.169 93.7069 149.623C98.4885 148.822 103.114 147.439 107.293 144.925C108.765 144.063 110.114 143.007 111.304 141.784C112.2 140.824 112.924 139.765 113.422 138.575C114.48 135.889 114.101 133.396 112.263 131.198C110.988 129.666 109.339 128.715 107.503 127.958C103.729 126.423 99.8273 126.027 95.8247 126.331C86.8997 127.089 79.2038 130.641 72.8709 136.95C70.3695 139.445 68.0977 142.264 65.7334 144.915L64.9727 145.84C64.8253 145.831 64.7364 145.854 64.6347 145.834C58.6627 144.167 53.0164 141.741 48.0225 137.986C45.1953 135.862 42.7681 133.437 41.0608 130.292C38.2712 125.081 38.8598 119.207 42.7153 114.235C43.0326 114.341 43.451 114.469 43.8253 114.61C51.2323 117.333 58.8209 118.758 66.7299 118.513C70.0151 118.402 73.228 118.021 76.3636 116.989C78.1767 116.406 79.9539 115.69 81.4081 114.484C82.242 113.828 83.0396 113.038 83.6206 112.162C85.0059 110.157 84.91 107.828 83.503 105.804C82.6739 104.68 81.6227 103.809 80.4296 103.12C78.3843 101.939 76.132 101.245 73.8183 100.856C68.3757 99.9121 63.0136 100.34 57.7483 101.847C51.856 103.522 46.6574 106.356 42.3883 110.862L42.0781 111.138C41.8058 111.018 41.4894 110.912 41.2162 110.792C38.085 109.326 35.1056 107.53 32.5116 105.198C30.4889 103.386 28.8325 101.331 27.6879 98.8518C26.1121 95.4787 25.8956 91.9815 26.916 88.4408C27.6693 85.6922 29.0236 83.2163 30.8896 81.035C31.9496 79.7903 33.1465 78.7014 34.2747 77.5336C34.7612 77.0191 35.2786 76.9758 35.9692 77.2234C40.6323 78.9315 45.4239 80.2661 50.2985 81.2148C57.7195 82.7338 65.2537 83.5972 72.846 83.2442C76.5472 83.0703 80.1636 82.5806 83.6891 81.3958C85.4459 80.7812 87.1101 79.9988 88.4949 78.7146C90.723 76.6289 90.9023 73.8901 88.9705 71.5256C88.446 70.8447 87.8169 70.2511 87.1068 69.767C86.0142 69.0156 84.8584 68.3606 83.6524 67.8093C80.9746 66.6054 78.0929 65.8888 75.1922 65.4641C65.0242 63.9129 55.077 64.8007 45.3784 68.4088C41.7981 69.7522 38.3846 71.5324 35.2804 73.7566C34.836 74.0682 34.4563 74.2663 33.8555 73.9945C28.9476 71.9946 24.2157 69.755 19.8864 66.688C17.4034 64.9515 15.1082 63.0197 13.1892 60.6993C12.0641 59.3671 11.0939 57.8982 10.4254 56.2997C8.65638 52.2092 9.06525 48.353 11.5356 44.6639C13.326 42.0225 15.8047 40.1574 18.5713 38.6479C22.2628 36.6494 26.228 35.4906 30.3709 34.8133C34.6478 34.099 38.9217 33.9146 43.2474 34.1014C43.4834 34.0857 43.6871 34.1274 43.9472 34.2017C44.0191 34.4702 44.1236 34.6824 44.1392 34.9184C44.534 37.6472 45.6104 40.0495 47.413 42.1132C48.5944 43.4779 49.8667 44.8183 51.2695 45.9312C57.2925 50.6594 64.1916 53.2791 71.825 53.972C73.5942 54.1222 75.406 54.0685 77.109 53.6122C77.647 53.468 78.185 53.3238 78.7101 53.1355C81.9202 51.8437 82.8847 48.9908 81.3032 45.9557C80.629 44.6953 79.6769 43.6532 78.6143 42.736C76.969 41.2553 75.0689 40.0832 73.0595 39.0366C68.0279 36.3969 62.6311 34.7206 57.0634 33.6657C53.9695 33.0536 50.8124 32.7462 47.7082 32.2808C47.3223 32.0964 46.9289 32.0579 46.489 32.0308ZM67.3223 146.364C68.1941 145.313 68.9558 144.388 69.7619 143.452C72.367 140.447 75.0425 137.52 78.2559 135.17C84.4497 130.676 91.3433 128.252 98.9984 128.315C101.836 128.323 104.613 128.829 107.201 130.057C108.46 130.632 109.608 131.333 110.528 132.432C111.815 134.009 112.181 135.736 111.29 137.609C110.854 138.495 110.329 139.403 109.597 140.08C108.567 141.076 107.424 142.008 106.188 142.771C102.677 144.913 98.7808 146.149 94.7647 146.936C86.0022 148.66 77.2195 148.515 68.4765 146.726C68.1601 146.619 67.8296 146.468 67.3223 146.364ZM37.3176 75.0846C37.5953 74.8652 37.7067 74.7401 37.8735 74.6478C40.2716 73.0969 42.8173 71.7871 45.4734 70.7376C52.2168 68.1128 59.2431 66.9031 66.4595 66.9396C71.3232 66.9822 76.0827 67.5321 80.6915 69.1307C82.1738 69.6477 83.6159 70.3659 84.9802 71.1536C85.8327 71.6458 86.5533 72.3648 87.1975 73.1539C88.1281 74.297 87.9811 75.5373 86.9621 76.5796C86.4757 77.094 85.9079 77.4863 85.2837 77.8461C83.5009 78.9005 81.5403 79.4734 79.5319 79.8677C76.4817 80.4928 73.374 80.7938 70.2605 80.7659C59.2178 80.795 48.5019 78.8139 38.0211 75.3764C37.7817 75.2915 37.5468 75.1941 37.3176 75.0846ZM44.4229 111.999C44.6433 111.748 44.7751 111.521 44.9751 111.371C45.8738 110.602 46.7037 109.755 47.6715 109.063C53.3646 104.847 59.8246 102.78 66.8429 102.437C70.2621 102.289 73.5654 102.605 76.8034 103.755C78.2874 104.27 79.6721 104.956 80.8724 106.028C82.7934 107.819 82.8618 109.867 81.0134 111.755C79.9954 112.797 78.6905 113.483 77.3484 114.034C74.421 115.299 71.2766 115.757 68.1053 115.934C60.199 116.371 52.5782 115.003 45.1828 112.324C44.9791 112.282 44.7515 112.152 44.4229 111.999ZM46.4018 34.2169C46.7395 34.2216 46.9758 34.207 47.1664 34.2035C54.3147 34.8826 61.3292 36.318 68.0042 38.9977C70.8035 40.1215 73.5044 41.4155 75.9217 43.2659C77.0054 44.0802 78.0345 45.054 78.8524 46.1321C80.6239 48.4433 79.9238 50.3122 77.1244 51.1585C75.3438 51.6843 73.5318 51.7371 71.7053 51.5546C64.9392 50.8684 58.7999 48.5732 53.3072 44.5683C51.2788 43.0951 49.5159 41.3572 48.1737 39.2187C47.2489 37.7376 46.6246 36.1263 46.4018 34.2169Z" fill="#26292F" fill-opacity="0.25"/>
</g>
<defs>
<clipPath id="clip0_28589_3677">
<rect width="117" height="152" fill="white" transform="matrix(-0.965926 0.258819 0.258819 0.965926 113.336 0)"/>
</clipPath>
</defs>
</svg>

<svg xmlns="http://www.w3.org/2000/svg" width="153" height="178" fill="none"><g clip-path="url(#a)"><path fill="#26292F" fill-opacity=".25" d="M46.489 32.03c.091-.552.163-1.004.28-1.467.657-2.386 1.951-4.366 3.62-6.207 2.343-2.55 5.148-4.454 8.183-6.036 5.022-2.595 10.422-4.138 15.98-4.906 8.243-1.153 16.39-.692 24.449 1.231 4.521 1.096 8.825 2.633 12.782 5.032 1.433.864 2.755 1.856 4.044 2.903.743.619 1.309 1.475 1.908 2.276.219.277.436.555.796.46.256-.118.579-.349.71-.576.284-.557.127-1.139-.229-1.572-.68-.923-1.282-1.914-2.149-2.643a31 31 0 0 0-4.478-3.268c-2.972-1.942-6.316-3.304-9.754-4.305-12.024-3.456-24.109-3.725-36.232-.38-5.409 1.498-10.458 3.811-14.834 7.386-3.82 3.137-6.73 6.799-7.51 11.957-.428.018-.822-.02-1.205-.014-4.887-.131-9.801.176-14.624 1.18-4.69.968-9.177 2.507-13.162 5.208a25.6 25.6 0 0 0-3.497 2.907c-5.123 5.265-5.82 11.985-2.023 18.27 1.378 2.273 3.144 4.202 5.11 5.981 3.852 3.436 8.252 6.052 12.881 8.27 1.271.621 2.564 1.14 3.88 1.748.272.119.499.25.885.436-.343.332-.642.653-.908.916-2.603 2.474-4.773 5.314-6.135 8.658-1.72 4.16-2.02 8.42-.574 12.74.876 2.552 2.23 4.735 4.02 6.755 2.823 3.182 6.284 5.521 10.064 7.439.5.251 1 .502 1.6.772-.23.398-.47.752-.667 1.092-2.116 3.402-3.248 7.069-2.785 11.124.308 2.944 1.444 5.57 3.106 8.007 2.135 3.128 4.856 5.569 7.964 7.667 4.293 2.934 8.989 5.038 13.955 6.542.374.14.793.268 1.268.428-.274.41-.483.707-.725 1.06-2.563 3.522-4.957 7.142-6.781 11.089-.86 1.816-1.56 3.685-2.202 5.587a10.6 10.6 0 0 0-.602 4.389c.064 1.136.379 1.772 1.076 2.402a.7.7 0 0 1 .11-.126c-.461-1.366-.248-2.72.112-4.065.55-2.07 1.43-3.987 2.423-5.838 2.52-4.76 5.552-9.222 8.824-13.51.077-.069.155-.138.297-.32.307.062.656.112 1.018.208 8.936 1.977 17.947 2.252 26.949.706 4.782-.801 9.407-2.184 13.586-4.698a19 19 0 0 0 4.011-3.141c.896-.96 1.62-2.019 2.118-3.209 1.058-2.686.679-5.179-1.159-7.377-1.275-1.532-2.924-2.483-4.76-3.24-3.774-1.535-7.676-1.931-11.678-1.627-8.925.758-16.621 4.31-22.954 10.619-2.501 2.495-4.773 5.314-7.138 7.965l-.76.925c-.148-.009-.237.014-.338-.006-5.972-1.667-11.619-4.093-16.613-7.848-2.827-2.124-5.254-4.549-6.961-7.694-2.79-5.211-2.201-11.085 1.654-16.057.318.106.736.234 1.11.375 7.407 2.723 14.996 4.148 22.905 3.903 3.285-.111 6.498-.492 9.634-1.524 1.813-.583 3.59-1.299 5.044-2.505.834-.656 1.632-1.446 2.213-2.322 1.385-2.005 1.289-4.334-.118-6.358-.83-1.124-1.88-1.995-3.073-2.684-2.046-1.181-4.298-1.875-6.612-2.264-5.442-.944-10.804-.516-16.07.991-5.892 1.675-11.09 4.509-15.36 9.015l-.31.276c-.272-.12-.589-.226-.862-.346-3.131-1.466-6.11-3.262-8.704-5.594-2.023-1.812-3.68-3.867-4.824-6.346-1.576-3.373-1.792-6.87-.772-10.411.753-2.749 2.108-5.225 3.974-7.406 1.06-1.245 2.257-2.334 3.385-3.501.486-.515 1.004-.558 1.694-.31a94 94 0 0 0 14.33 3.99c7.42 1.52 14.955 2.383 22.547 2.03 3.701-.174 7.318-.663 10.843-1.848 1.757-.615 3.421-1.397 4.806-2.681 2.228-2.086 2.407-4.825.475-7.19a8.1 8.1 0 0 0-1.863-1.758 23 23 0 0 0-3.455-1.958c-2.677-1.204-5.56-1.92-8.46-2.345-10.168-1.551-20.115-.663-29.814 2.945-3.58 1.343-6.993 3.123-10.098 5.348-.444.311-.824.51-1.425.237-4.907-2-9.64-4.239-13.969-7.306-2.483-1.737-4.778-3.668-6.697-5.989-1.125-1.332-2.095-2.8-2.764-4.4-1.769-4.09-1.36-7.946 1.11-11.635 1.791-2.642 4.27-4.507 7.036-6.016 3.692-1.999 7.657-3.157 11.8-3.835 4.277-.714 8.55-.898 12.876-.712.236-.015.44.026.7.1.072.27.177.481.192.717.395 2.73 1.471 5.132 3.274 7.195 1.181 1.365 2.454 2.705 3.857 3.818 6.022 4.728 12.922 7.348 20.555 8.041 1.77.15 3.581.096 5.284-.36a20 20 0 0 0 1.601-.477c3.21-1.291 4.175-4.144 2.593-7.18-.674-1.26-1.626-2.302-2.689-3.219-1.645-1.48-3.545-2.653-5.555-3.7-5.031-2.64-10.428-4.315-15.996-5.37-3.094-.612-6.25-.92-9.355-1.385-.386-.185-.78-.223-1.219-.25m20.833 114.334c.872-1.051 1.634-1.976 2.44-2.912 2.605-3.005 5.28-5.932 8.494-8.282 6.194-4.494 13.087-6.918 20.742-6.855 2.838.008 5.615.514 8.203 1.742 1.259.575 2.407 1.276 3.327 2.375 1.287 1.577 1.653 3.304.762 5.177-.436.886-.961 1.794-1.693 2.471-1.03.996-2.173 1.928-3.409 2.691-3.511 2.142-7.407 3.378-11.423 4.165-8.763 1.724-17.546 1.579-26.288-.21-.317-.107-.647-.258-1.155-.362m-30.004-71.28c.277-.219.389-.344.556-.436a43.3 43.3 0 0 1 7.6-3.91c6.743-2.625 13.77-3.835 20.986-3.798 4.863.042 9.623.592 14.232 2.19 1.482.518 2.924 1.236 4.288 2.024.853.492 1.573 1.21 2.218 2 .93 1.143.783 2.383-.236 3.426-.486.514-1.054.906-1.678 1.266-1.783 1.054-3.744 1.627-5.752 2.022-3.05.625-6.158.926-9.272.898-11.042.029-21.758-1.952-32.239-5.39a7 7 0 0 1-.703-.291M44.423 112c.22-.251.352-.478.552-.628.899-.769 1.729-1.616 2.697-2.308 5.693-4.216 12.153-6.283 19.17-6.626 3.42-.148 6.723.168 9.961 1.318 1.484.515 2.87 1.201 4.07 2.273 1.92 1.791 1.989 3.839.14 5.727-1.018 1.042-2.323 1.728-3.665 2.279-2.927 1.265-6.071 1.723-9.243 1.9-7.906.437-15.527-.931-22.922-3.61-.204-.042-.431-.172-.76-.325m1.979-77.782c.337.005.574-.01.764-.014 7.149.68 14.163 2.115 20.838 4.795 2.8 1.124 5.5 2.418 7.918 4.268 1.083.814 2.112 1.788 2.93 2.866 1.772 2.311 1.072 4.18-1.728 5.026-1.78.526-3.592.58-5.419.397-6.766-.687-12.905-2.982-18.398-6.987-2.028-1.473-3.791-3.21-5.133-5.35-.925-1.48-1.55-3.092-1.772-5.001"/></g><defs><clipPath id="a"><path fill="#fff" d="M113.336 0 .323 30.282l39.34 146.82 113.013-30.281z"/></clipPath></defs></svg>
